X:3173
T:Vals efter Börjes Olle
S:Efter Börjes Olle
R:Vals
O:Rättvik, Dalarna
Z:Karl Ljungkvist, 2013-02-25
D:Bockfot!!! - Pers Hans och Björn Ståbi
M:3/4
L:1/8
K:Am
|: e3 f ed | c3 B Ac | B2 E^GB^G | A6 | G2 c2 e2 | g3 a ge |1 f2 d^c df | e6 :|2 f2 df aPg | e6 ||
|: a3 b a2 | g3 a g2 | ^f2 B^d ^f^d | e3 c A2 | a3 b a2 | g3 a g2 | ^f2 B^d ^f^d |
 e3 c AB | c3 B ce | B3 ^G E^G | B3 A Bc | A6 :|
(:musicend:)
(:music:)
